public/new/divlabel1djmiigd.svg

<svg fill="none" height="20" viewBox="0 0 20 20" width="20" xmlns="http://www.w3.org/2000/svg" xmlns:xlink="http://www.w3.org/1999/xlink"><clipPath id="a"><path d="m2.5 2.5h15v15h-15z"/></clipPath><g clip-path="url(#a)"><path d="m5.50006 10.0001c0-1.2428.50314-2.36711 1.31803-3.182l-.7071-.70711c-.99477.99476-1.61093 2.37045-1.61093 3.88911zm1.31803-3.182c.81489-.81488 1.9392-1.31801 3.18201-1.31801v-1c-1.51867 0-2.89436.61615-3.88911 1.6109zm.00001-.70711-1.76775-1.76775-.70711.7071 1.76775 1.76776zm3.182-.6109c1.2427 0 2.3671.50313 3.1819 1.31803l.7071-.70711c-.9947-.99476-2.3704-1.61092-3.889-1.61092zm3.1819 1.31803c.8149.81488 1.318 1.93919 1.318 3.18198h1c0-1.51865-.6161-2.89433-1.6109-3.88909zm.7071 0 1.7678-1.76778-.7071-.70711-1.7678 1.76778zm.6109 3.18198c0 1.2428-.5031 2.3671-1.318 3.1819l.7071.7072c.9948-.9948 1.6109-2.3705 1.6109-3.8891zm-1.318 3.1819c-.8148.8149-1.9392 1.3181-3.1819 1.3181v1c1.5186 0 2.8943-.6162 3.889-1.6109zm0 .7072 1.7678 1.7677.7071-.7071-1.7678-1.7678zm-3.1819.6109c-1.24281 0-2.36712-.5031-3.18201-1.318l-.7071.7071c.99475.9947 2.37044 1.6109 3.88911 1.6109zm-3.18201-1.318c-.81489-.8149-1.31803-1.9392-1.31803-3.182h-1c0 1.5186.61616 2.8943 1.61093 3.8891zm-1.76774 2.4748 1.76775-1.7677-.70711-.7071-1.76775 1.7677zm5.44975-10.65682-.0001-2.50008-.99998.00002.00004 2.50008zm4.5 5.50002 2.4999-.0001v-.99999l-2.5.00008zm-10.00002-1.00001-2.50005-.00008-.00003.99999 2.50005.0001zm4.49998 5.50001-.00004 2.4999h.99998l.0001-2.4999z" fill="#787b86"/></g></svg>

<svg width="20" height="20" viewBox="0 0 20 20" fill="none" xmlns="http://www.w3.org/2000/svg">
<g clip-path="url(#clip0_181_8923)">
<path d="M5.50006 10.0001C5.50006 8.7573 6.0032 7.63299 6.81809 6.8181L6.11099 6.11099C5.11622 7.10575 4.50006 8.48144 4.50006 10.0001H5.50006ZM6.81809 6.8181C7.63298 6.00322 8.75729 5.50009 10.0001 5.50009V4.50009C8.48143 4.50009 7.10574 5.11624 6.11099 6.11099L6.81809 6.8181ZM6.8181 6.11099L5.05035 4.34324L4.34324 5.05034L6.11099 6.8181L6.8181 6.11099ZM10.0001 5.50009C11.2428 5.50009 12.3672 6.00322 13.182 6.81812L13.8891 6.11101C12.8944 5.11625 11.5187 4.50009 10.0001 4.50009V5.50009ZM13.182 6.81812C13.9969 7.633 14.5 8.75731 14.5 10.0001H15.5C15.5 8.48145 14.8839 7.10577 13.8891 6.11101L13.182 6.81812ZM13.8891 6.81812L15.6569 5.05034L14.9498 4.34323L13.182 6.11101L13.8891 6.81812ZM14.5 10.0001C14.5 11.2429 13.9969 12.3672 13.182 13.182L13.8891 13.8892C14.8839 12.8944 15.5 11.5187 15.5 10.0001H14.5ZM13.182 13.182C12.3672 13.9969 11.2428 14.5001 10.0001 14.5001V15.5001C11.5187 15.5001 12.8944 14.8839 13.8891 13.8892L13.182 13.182ZM13.182 13.8892L14.9498 15.6569L15.6569 14.9498L13.8891 13.182L13.182 13.8892ZM10.0001 14.5001C8.75729 14.5001 7.63298 13.997 6.81809 13.1821L6.11099 13.8892C7.10574 14.8839 8.48143 15.5001 10.0001 15.5001V14.5001ZM6.81809 13.1821C6.0032 12.3672 5.50006 11.2429 5.50006 10.0001H4.50006C4.50006 11.5187 5.11622 12.8944 6.11099 13.8892L6.81809 13.1821ZM5.05035 15.6569L6.8181 13.8892L6.11099 13.1821L4.34324 14.9498L5.05035 15.6569ZM10.5001 5.00008L10.5 2.5L9.50002 2.50002L9.50006 5.0001L10.5001 5.00008ZM15.0001 10.5001L17.5 10.5V9.50001L15 9.50009L15.0001 10.5001ZM5.00008 9.50009L2.50003 9.50001L2.5 10.5L5.00005 10.5001L5.00008 9.50009ZM9.50006 15.0001L9.50002 17.5H10.5L10.5001 15.0001H9.50006Z" fill="#787B86"/>
</g>
<defs>
<clipPath id="clip0_181_8923">
<rect width="15" height="15" fill="white" transform="translate(2.5 2.5)"/>
</clipPath>
</defs>
</svg>
